X: 31404
T: Paddy On The Turnpike
R: reel
M: 4/4
K: Gdorian
|:DGGA GFGA|BGdG _eGdG|CFFG FEFG|AFcF dFcF|
DGGA GFGA|BABc dcde|fgfd cAFA|BGAF DG G2:|
|:dgga gfga|bgga bgg2|cffg fefg|affg aff2|
dgga bagb|abag fedc|defd cAFA|BGAF DG G2:|

